dist/img/icons/socials/01.svg

<svg width="32" height="32" viewBox="0 0 32 32" fill="none" xmlns="http://www.w3.org/2000/svg">
<path d="M16 3C12.2878 3 8.72437 4.47591 6.10156 7.10047C3.47604 9.72607 2.00073 13.2869 2 17C2 20.7115 3.47656 24.275 6.10156 26.8995C8.72437 29.5241 12.2878 31 16 31C19.7122 31 23.2756 29.5241 25.8984 26.8995C28.5234 24.275 30 20.7115 30 17C30 13.2885 28.5234 9.72503 25.8984 7.10047C23.2756 4.47591 19.7122 3 16 3Z" fill="#28579A"/>
<path d="M8.09976 17.166C12.3955 15.4727 15.2594 14.3562 16.6913 13.8168C20.7845 12.2766 21.634 12.0091 22.1888 12.0001C22.3108 11.9983 22.5825 12.0256 22.7597 12.1553C22.9071 12.2647 22.9485 12.4126 22.9692 12.5164C22.9876 12.6202 23.013 12.8566 22.9922 13.0412C22.7712 15.1495 21.8112 20.2657 21.3232 22.6272C21.1183 23.6263 20.7108 23.9613 20.3172 23.9941C19.4608 24.0653 18.8116 23.4824 17.9828 22.9909C16.6867 22.2216 15.9546 21.7428 14.6954 20.9922C13.2404 20.1247 14.1843 19.6478 15.0131 18.8687C15.2295 18.6647 19.0003 15.5616 19.0717 15.2802C19.0809 15.245 19.0901 15.1137 19.0026 15.0445C18.9175 14.9752 18.7909 14.9989 18.6988 15.0177C18.5675 15.0443 16.4979 16.2835 12.483 18.7349C11.896 19.1003 11.3642 19.2785 10.8853 19.2691C10.3604 19.2589 9.34751 18.9999 8.59472 18.7787C7.67386 18.5072 6.93948 18.3637 7.00394 17.9026C7.03617 17.6626 7.40221 17.417 8.09976 17.166Z" fill="white"/>
</svg>

<svg width="32" height="32" fill="none" xmlns="http://www.w3.org/2000/svg"><path d="M16 3a13.998 13.998 0 00-9.898 23.9A13.998 13.998 0 1025.898 7.1 13.998 13.998 0 0016 3z" fill="#28579A"/><path d="M8.1 17.166c4.296-1.693 7.16-2.81 8.591-3.35 4.094-1.54 4.943-1.807 5.498-1.816.122-.002.393.026.57.155.148.11.19.258.21.361.019.104.044.34.023.525-.22 2.108-1.18 7.225-1.669 9.586-.205 1-.612 1.334-1.006 1.367-.856.071-1.505-.512-2.334-1.003-1.296-.77-2.028-1.248-3.288-1.999-1.455-.867-.51-1.344.318-2.123.216-.204 3.987-3.307 4.059-3.589.009-.035.018-.166-.07-.236-.084-.069-.211-.045-.303-.026-.132.026-2.201 1.265-6.216 3.717-.587.365-1.119.544-1.598.534-.525-.01-1.537-.27-2.29-.49-.921-.272-1.656-.415-1.591-.876.032-.24.398-.486 1.096-.737z" fill="#fff"/></svg>
